packages/icons/src/svg/tdc-colored.svg

<svg xmlns="http://www.w3.org/2000/svg" viewBox="0 0 16 16">
  <g fill="none">
  <g class="ti-tdc-positive-bg" fill="#69B0A5" fill-rule="nonzero">
    <path d="M7.9999,15.9999 C3.5889,15.9999 -0.0001,12.4109 -0.0001,7.9999 C-0.0001,3.5889 3.5889,-0.0001 7.9999,-0.0001 C12.4109,-0.0001 15.9999,3.5889 15.9999,7.9999 C15.9999,12.4109 12.4109,15.9999 7.9999,15.9999"/>
  </g>
  <g class="ti-tdc-positive-logo" fill="#FFF" fill-rule="nonzero">
      <path d="M8.766,13.8905 C8.661,13.6675 8.461,13.4985 8.219,13.4335 C8.219,13.4335 8.031,13.3735 7.783,13.4315 C7.537,13.4955 7.335,13.6665 7.228,13.8925 C4.546,13.5485 2.416,11.4155 2.078,8.7315 C2.349,8.5885 2.534,8.3055 2.534,7.9785 C2.534,7.6515 2.349,7.3685 2.079,7.2255 C2.421,4.5405 4.556,2.4085 7.242,2.0705 C7.382,2.3475 7.669,2.5375 8.001,2.5375 C8.332,2.5375 8.618,2.3485 8.759,2.0735 C11.429,2.4175 13.549,4.5365 13.898,7.2045 C13.604,7.3385 13.4,7.6345 13.4,7.9785 C13.4,8.3225 13.605,8.6185 13.899,8.7515 C13.553,11.4215 11.435,13.5415 8.766,13.8905 M14.44,7.1495 C14.067,4.2285 11.756,1.9135 8.837,1.5345 C8.765,1.1375 8.418,0.8365 8.001,0.8365 C7.584,0.8365 7.239,1.1355 7.165,1.5315 C4.238,1.9015 1.919,4.2155 1.541,7.1405 C1.139,7.2075 0.832,7.5565 0.832,7.9785 C0.832,8.3995 1.138,8.7475 1.54,8.8165 C1.915,11.7445 4.236,14.0635 7.166,14.4335 C7.249,14.8175 7.59,15.1045 7.997,15.1045 C8.407,15.1045 8.747,14.8165 8.829,14.4315 C11.755,14.0545 14.071,11.7345 14.441,8.8065 C14.819,8.7195 15.101,8.3825 15.101,7.9785 C15.101,7.5745 14.819,7.2365 14.44,7.1495"/>
      <path d="M10.6117,10.8681 C10.4997,10.7891 10.3657,10.6871 10.2117,10.5631 C10.1647,10.5261 10.1147,10.4851 10.0617,10.4411 C9.7497,10.1841 9.3227,9.8341 8.8367,9.6471 C8.4817,9.5121 8.1427,9.4841 7.8257,9.5641 L9.2187,5.9281 C9.9127,5.2641 10.6207,5.7441 11.4067,6.3901 C11.4607,6.4351 11.5117,6.4771 11.5607,6.5161 C11.7867,6.6981 11.9747,6.8381 12.1197,6.9311 L10.6117,10.8681 Z M7.2497,9.3441 C6.7387,8.5781 5.6597,8.5311 4.9987,8.5021 C4.9307,8.4991 4.8667,8.4961 4.8067,8.4931 C4.6097,8.4821 4.4427,8.4691 4.3057,8.4521 L5.8147,4.5151 C5.9857,4.5431 6.2177,4.5641 6.5077,4.5811 C6.5637,4.5841 6.6237,4.5861 6.6867,4.5891 L6.7067,4.5901 C7.7227,4.6351 8.5707,4.7491 8.6437,5.7081 L7.2497,9.3441 Z M12.6047,6.4961 C12.4707,6.4141 12.2467,6.2761 11.9467,6.0361 C11.9037,6.0021 11.8587,5.9651 11.8117,5.9261 L11.7977,5.9151 C11.2337,5.4511 10.1997,4.6001 9.1697,5.1961 C8.8007,4.0641 7.4627,4.0061 6.7337,3.9741 L6.6957,3.9721 C6.6417,3.9711 6.5907,3.9681 6.5417,3.9661 C6.1577,3.9441 5.8997,3.8961 5.7447,3.8681 C5.6387,3.8481 5.5947,3.8411 5.5587,3.8481 C5.4567,3.8711 5.3747,3.9421 5.3377,4.0391 L3.6027,8.5661 C3.5577,8.6811 3.5867,8.8121 3.6757,8.8981 C3.7367,8.9571 3.8397,9.0561 4.7727,9.1081 C4.8297,9.1111 4.9727,9.1171 4.9727,9.1171 C5.6597,9.1471 6.5967,9.1881 6.8447,9.9061 C6.8447,9.9061 6.9197,10.1211 6.9207,10.1191 C6.9197,10.1201 7.5397,10.3511 7.5397,10.3511 L7.7727,10.2421 C8.4467,9.9091 9.1457,10.4851 9.6737,10.9201 C9.7267,10.9641 9.7777,11.0061 9.8257,11.0441 C10.2117,11.3531 10.4757,11.5331 10.6347,11.5941 C10.6947,11.6171 10.7777,11.6211 10.7827,11.6211 C10.9057,11.6161 11.0147,11.5391 11.0587,11.4241 L12.7937,6.8951 C12.8307,6.7991 12.8167,6.6901 12.7567,6.6061 C12.7347,6.5751 12.6957,6.5531 12.6047,6.4961 L12.6047,6.4961 Z"/>
      <path d="M10.6117,12.4579 C10.5717,12.4579 10.4557,12.4499 10.3507,12.4089 C10.1577,12.3349 9.8857,12.1489 9.4667,11.8089 C9.4177,11.7699 9.3657,11.7259 9.3117,11.6809 C9.2577,11.6359 9.2027,11.5879 9.1457,11.5389 C8.5847,11.0549 8.2087,10.7889 7.7137,11.1739 L7.5817,11.2759 L6.2107,10.7629 L6.1987,10.5699 C6.1657,10.0579 5.8067,9.9609 4.9617,9.9269 C4.9057,9.9239 4.8507,9.9219 4.7977,9.9189 C4.7977,9.9189 4.6527,9.9119 4.5947,9.9079 C3.6287,9.8489 3.4467,9.7409 3.3087,9.6069 C3.1917,9.4929 3.1887,9.3039 3.3037,9.1859 C3.4187,9.0679 3.6077,9.0649 3.7257,9.1809 L3.7327,9.1869 C3.7427,9.1929 3.8787,9.2669 4.6317,9.3129 C4.6867,9.3159 4.8267,9.3229 4.8267,9.3229 C4.8787,9.3259 4.9317,9.3279 4.9857,9.3299 C5.5947,9.3539 6.5897,9.3949 6.7687,10.3349 L7.4867,10.6039 C8.3417,10.0569 9.0557,10.6729 9.5357,11.0879 C9.5897,11.1349 9.6417,11.1799 9.6937,11.2229 C9.7457,11.2669 9.7957,11.3079 9.8427,11.3459 C10.3067,11.7229 10.4957,11.8259 10.5677,11.8539 C10.5767,11.8559 10.6007,11.8599 10.6157,11.8609 C10.7707,11.8649 10.8987,11.9889 10.9057,12.1459 C10.9127,12.3119 10.7847,12.4499 10.6207,12.4579 L10.6117,12.4579 Z"/>
  </g>
  </g>
</svg>

<svg xmlns="http://www.w3.org/2000/svg" viewBox="0 0 16 16">
	<g fill="none">
		<path d="M8 16c-4.411 0-8-3.59-8-8 0-4.411 3.589-8 8-8 4.41 0 8 3.589 8 8 0 4.41-3.59 8-8 8" class="ti-tdc-positive-bg" fill="#69B0A5"/>
		<g class="ti-tdc-positive-logo" fill="#FFF">
			<path d="M8.766 13.89a.85.85 0 0 0-.547-.457s-.188-.06-.436-.002a.853.853 0 0 0-.555.462 5.971 5.971 0 0 1-5.15-5.162.85.85 0 0 0 .001-1.505A5.971 5.971 0 0 1 7.242 2.07a.85.85 0 0 0 1.517.002 5.968 5.968 0 0 1 5.139 5.132.85.85 0 0 0 .001 1.546 5.971 5.971 0 0 1-5.133 5.14m5.674-6.742a6.504 6.504 0 0 0-5.603-5.615.85.85 0 0 0-1.672-.002A6.504 6.504 0 0 0 1.541 7.14a.85.85 0 0 0-.001 1.675 6.505 6.505 0 0 0 5.626 5.617.851.851 0 0 0 1.663-.002 6.505 6.505 0 0 0 5.612-5.624.85.85 0 0 0-.001-1.658"/>
			<path d="M10.612 10.868a8.11 8.11 0 0 1-.55-.427c-.312-.257-.74-.607-1.225-.794-.355-.135-.694-.163-1.011-.083l1.393-3.636c.694-.664 1.402-.184 2.188.462l.154.126c.226.182.414.322.559.415l-1.508 3.937zM7.25 9.344c-.511-.766-1.59-.813-2.251-.842a7.687 7.687 0 0 1-.693-.05l1.509-3.937c.17.028.403.05.693.066l.179.008.02.001c1.016.045 1.864.16 1.937 1.118L7.25 9.344zm5.355-2.848a5.976 5.976 0 0 1-.793-.57l-.014-.01C11.234 5.45 10.2 4.6 9.17 5.195c-.37-1.132-1.707-1.19-2.436-1.222l-.038-.002c-.054 0-.105-.004-.154-.006-.384-.022-.642-.07-.797-.098-.106-.02-.15-.027-.186-.02a.307.307 0 0 0-.221.191L3.603 8.566a.307.307 0 0 0 .073.332c.06.06.164.158 1.097.21l.2.01c.687.03 1.624.07 1.872.788 0 0 .075.215.076.213-.001.001.619.232.619.232l.233-.109c.674-.333 1.373.243 1.9.678l.153.124c.386.31.65.49.809.55.06.023.143.027.148.027a.308.308 0 0 0 .276-.197l1.735-4.529a.308.308 0 0 0-.037-.289c-.022-.03-.061-.053-.152-.11z"/>
			<path d="M10.612 12.458a.803.803 0 0 1-.261-.05c-.193-.073-.465-.26-.884-.6-.05-.038-.101-.082-.155-.127l-.166-.142c-.561-.484-.937-.75-1.432-.365l-.132.102-1.371-.513-.012-.193c-.033-.512-.392-.61-1.237-.643l-.164-.008-.203-.011c-.966-.06-1.148-.167-1.286-.301a.298.298 0 0 1 .417-.426l.007.006c.01.006.146.08.899.126l.195.01.159.007c.609.024 1.604.065 1.783 1.005l.718.269c.855-.547 1.569.069 2.049.484a8.263 8.263 0 0 0 .307.258c.464.377.653.48.725.508a.42.42 0 0 0 .048.007.299.299 0 0 1 .005.597h-.01z"/>
		</g>
	</g>
</svg>
